build/images/g15.svg

<svg width="138" height="138" viewBox="0 0 138 138" fill="none" xmlns="http://www.w3.org/2000/svg">
<circle cx="69" cy="69" r="69" fill="#76BD5E"/>
<path d="M88.9149 54.0938C87.485 52.6635 86.6478 50.7461 86.5707 48.7251C86.4936 46.7042 87.1822 44.7286 88.4989 43.1935C88.6078 43.0658 88.6644 42.9017 88.6574 42.734C88.6504 42.5663 88.5803 42.4075 88.4611 42.2894L80.8763 34.696C80.7509 34.5706 80.5809 34.5002 80.4036 34.5002C80.2263 34.5002 80.0563 34.5706 79.931 34.696L67.8413 46.7856C67.3952 47.2316 67.0592 47.7753 66.8599 48.3738V48.3738C66.6613 48.9736 66.3257 49.5189 65.8797 49.9664C65.4336 50.4139 64.8895 50.7513 64.2903 50.9519V50.9519C63.6915 51.1514 63.1472 51.4874 62.7005 51.9333L31.696 82.931C31.5706 83.0563 31.5002 83.2263 31.5002 83.4036C31.5002 83.5809 31.5706 83.7509 31.696 83.8763L39.2808 91.4611C39.3989 91.5803 39.5578 91.6504 39.7254 91.6574C39.8931 91.6644 40.0572 91.6078 40.1849 91.4989C41.7197 90.1808 43.6957 89.4911 45.7173 89.5677C47.739 89.6444 49.6571 90.4818 51.0877 91.9124C52.5182 93.3429 53.3557 95.261 53.4323 97.2827C53.509 99.3044 52.8192 101.28 51.5011 102.815C51.3922 102.943 51.3356 103.107 51.3426 103.275C51.3496 103.442 51.4197 103.601 51.5389 103.719L59.1238 111.304C59.2492 111.429 59.4192 111.5 59.5964 111.5C59.7737 111.5 59.9437 111.429 60.0691 111.304L91.0753 80.2996C91.5212 79.8528 91.8572 79.3085 92.0567 78.7097V78.7097C92.2553 78.1099 92.5909 77.5646 93.0369 77.1171C93.483 76.6696 94.0271 76.3322 94.6263 76.1316V76.1316C95.2247 75.9323 95.7684 75.5962 96.2144 75.1502L108.304 63.0605C108.429 62.9351 108.5 62.7651 108.5 62.5878C108.5 62.4106 108.429 62.2406 108.304 62.1152L100.719 54.5303C100.601 54.4112 100.442 54.341 100.275 54.334C100.107 54.327 99.9429 54.3836 99.8152 54.4925C98.2822 55.8114 96.3078 56.5031 94.2869 56.4292C92.266 56.3552 90.3474 55.5212 88.9149 54.0938V54.0938Z" stroke="white" stroke-width="4" stroke-miterlimit="10"/>
<path d="M69.0547 53.1381L66.217 50.3004" stroke="white" stroke-width="4" stroke-miterlimit="10" stroke-linecap="round"/>
<path d="M76.6206 60.7041L74.7283 58.8135" stroke="white" stroke-width="4" stroke-miterlimit="10" stroke-linecap="round"/>
<path d="M84.1865 68.2717L82.2959 66.3794" stroke="white" stroke-width="4" stroke-miterlimit="10" stroke-linecap="round"/>
<path d="M92.6995 76.783L89.8618 73.9453" stroke="white" stroke-width="4" stroke-miterlimit="10" stroke-linecap="round"/>
</svg>

<svg width="138" height="138" fill="none" xmlns="http://www.w3.org/2000/svg"><circle cx="69" cy="69" r="69" fill="#76BD5E"/><path d="M88.915 54.094a8.026 8.026 0 01-.416-10.9.665.665 0 00-.038-.905l-7.585-7.593a.668.668 0 00-.945 0l-12.09 12.09a4.06 4.06 0 00-.981 1.588v0a4.067 4.067 0 01-2.57 2.578v0c-.599.2-1.143.535-1.59.981L31.696 82.931a.668.668 0 000 .945l7.585 7.585a.665.665 0 00.904.038A8.025 8.025 0 0151.5 102.815a.667.667 0 00.038.904l7.585 7.585a.67.67 0 00.945 0L91.075 80.3c.446-.447.782-.992.982-1.59v0a4.067 4.067 0 012.57-2.578v0a4.06 4.06 0 001.587-.982l12.09-12.09a.67.67 0 000-.945l-7.585-7.585a.665.665 0 00-.904-.038 8.027 8.027 0 01-10.9-.398v0z" stroke="#fff" stroke-width="4" stroke-miterlimit="10"/><path d="M69.055 53.138L66.217 50.3M76.62 60.704l-1.892-1.89m9.458 9.458l-1.89-1.893M92.7 76.783l-2.838-2.838" stroke="#fff" stroke-width="4" stroke-miterlimit="10" stroke-linecap="round"/></svg>
